X: 1255
T: Kime Halim Diyeyim
C: Faize Ergin
O: Turkey
F: http://compmusic.upf.edu/node/140
N: acemasiran--sarki--agirduyek--kime_halim--faize_ergin
N: makam= acemasiran
N: form= sarki
N: usul= agirduyek = 8/4
M: 8/4
L: 1/16
K: C _B   
Q: 1/4=84
%%MIDI tuningsystem comma53
z4 f3e d2e2 f2a2 g2f2 e2d2 e3d c4  | \
w:   | 
c4 d3c d2e2 f2g2 a3g f2e2 f8  | 
w:   | 
z4 f2g2 f2_e2 d2c2 c2d2 c2B2 A3G F4  | \
w:   | 
z4 G2A2 G2A2 G2F2 E2F2 G2{A}GF F8  | 
w:   | 
z4 f3e d2e2 f2a2 g2f2 e2d2 e3d c4  | \
w:   | 
c4 d3c d2e2 f2g2 a3g f2e2 f8  | 
w:   | 
z4 f2g2 f2_e2 d2c2 c2d2 c2B2 A3G F4  | \
w:   | 
z4 G2A2 G2A2 G2F2 E2F2 G2{A}GF F8  | 
w:   | 
z4 f3e d4 e4 f2g2 e2g2 f8  | z4 g2a2 g2a2 g2f2 f2e4d2 e3d c4  | 
w:  Ki *  *  me  ha *  *  *  lim   |  di *  *  *  *  *  ye *  *  yim   | 
z4 d2e2 d4 e4 f2g2 e2g2 f8  | f4 g2a2 g2a2 g2f2 e2f2 g2{a}gf f8  | 
w:  ki *  *  me  fer *  *  *  yad   |  *  e *  *  *  *  *  *  *  *  *  de *  yim    | 
z4 c'2d'2 c'2b2 a2g2 f3e d2e2 f8  | \
w:  SAZ  | 
z4 f2g2 f2_e2 e2d2 d2c2 c2B2 c2d2 e2{f}ed  | 
w:  Ki *  *  *  me  *  rüs *  *  *  vay   | 
_e4 c2d2 c2B2 A2G2 A2B2 c2{e}dc c8  | \
w:  *  o *  *  *  *  *  la *  *  *  *  *  yım   | 
z4 A2B2 A4 G4 F8 A8  | G3F E2F2 E2F2 G2GF F6c2 d2e2 f4  | 
w:  ki *  *  me  şek vâ   |  e *  *  *  *  *  de *  *  yim   SAZ  | 
z4 f2g2 f2_e2 e2d2 d2c2 c2B2 c2d2 e2{f}ed  | \
w:  Ki *  *  *  me  *  rüs *  *  *  vay   | 
_e4 c2d2 c2B2 A2G2 A2B2 c2{e}dc c8  | 
w:  *  o *  *  *  *  *  la *  *  *  *  *  yım   | 
z4 A2B2 A4 G4 F8 A8  | G3F E2F2 E2F2 G2{A}GF F6g2 a2g2 a4  | 
w:  ki *  *  me  şek vâ   |  e *  *  *  *  *  de *  *  *  yim   SAZ  | 
z4 g2a2 g4 a4 a2b2 c'2ba a8  | a4 e2f2 g4 f2e2 d2^cd e2ed d8  | 
w:  Ki *  *  me  bu  *  *  *  *  dağ_  |  *  ı  *  *  de *  rû *  *  *  *  *  num   | 
z4 a4 g4 f4 e3d c4 a8  | g3f e2f2 e2f2 g2gf f6g2 a2g2 a4  | 
w:  ki *  me  if *  *  ham_  |  e *  *  *  *  *  *  de *  yim   SAZ  | 
z4 g2a2 g4 a4 a2b2 c'2ba a8  | a4 e2f2 g4 f2e2 d2^cd e2ed d8  | 
w:  Ki *  *  me  bu  *  *  *  *  dağ_  |  *  ı  *  *  de *  rû *  *  *  *  *  num   | 
z4 a4 g4 f4 e3d c4 a8  | g3f e2f2 e2f2 g2gf f6c2 d2e2 f4  | 
w:  ki *  me  if *  *  ham_  |  e *  *  *  *  *  *  de *  yim   SAZ  | 
z4 f2g2 f2_e2 e2d2 d2c2 c2B2 c2d2 e2{f}ed  | \
w:  Ki *  *  *  me  *  rüs *  *  *  vay   | 
_e4 c2d2 c2B2 A2G2 A2B2 c2{e}dc c8  | 
w:  *  o *  *  *  *  *  la *  *  *  *  *  yım   | 
z4 A2B2 A4 G4 F8 A8  | G3F E2F2 E2F2 G2GF F6c2 d2e2 f4  | 
w:  ki *  *  me  şek vâ   |  e *  *  *  *  *  de *  *  yim   SAZ  | 
z4 f2g2 f2_e2 e2d2 d2c2 c2B2 c2d2 e2{f}ed  | \
w:  Ki *  *  *  me  *  rüs *  *  *  vay   | 
_e4 c2d2 c2B2 A2G2 A2B2 c2{e}dc c8  | 
w:  *  o *  *  *  *  *  la *  *  *  *  *  yım   | 
z4 A2B2 A4 G4 F8 A8  | G3F E2F2 E2F2 G2{A}GF F6|
w:  ki *  *  me  şek vâ   |  e *  *  *  *  *  de *  *  *  yim    | 


